storage/app/icons/tabler/filled/device-mobile.svg

<!--
version: "2.15"
unicode: "fa39"
-->
<svg
  xmlns="http://www.w3.org/2000/svg"
  width="24"
  height="24"
  viewBox="0 0 24 24"
  fill="currentColor"
>
  <path d="M16 2a3 3 0 0 1 2.995 2.824l.005 .176v14a3 3 0 0 1 -2.824 2.995l-.176 .005h-8a3 3 0 0 1 -2.995 -2.824l-.005 -.176v-14a3 3 0 0 1 2.824 -2.995l.176 -.005h8zm-4 14a1 1 0 0 0 -.993 .883l-.007 .117l.007 .127a1 1 0 0 0 1.986 0l.007 -.117l-.007 -.127a1 1 0 0 0 -.993 -.883zm1 -12h-2l-.117 .007a1 1 0 0 0 0 1.986l.117 .007h2l.117 -.007a1 1 0 0 0 0 -1.986l-.117 -.007z" />
</svg>

<svg xmlns="http://www.w3.org/2000/svg" width="24" height="24" fill="currentColor" viewBox="0 0 24 24"><path d="M16 2a3 3 0 0 1 2.995 2.824L19 5v14a3 3 0 0 1-2.824 2.995L16 22H8a3 3 0 0 1-2.995-2.824L5 19V5a3 3 0 0 1 2.824-2.995L8 2zm-4 14a1 1 0 0 0-.993.883L11 17l.007.127a1 1 0 0 0 1.986 0L13 17.01l-.007-.127A1 1 0 0 0 12 16m1-12h-2l-.117.007a1 1 0 0 0 0 1.986L11 6h2l.117-.007a1 1 0 0 0 0-1.986z"/></svg>
